symbolic/64x64/apps/com.github.thejambi.psnotes.svg

<svg xmlns="http://www.w3.org/2000/svg" width="64" height="64" version="1">
 <path style="opacity:0.2" d="M 54,58.212122 54,17.787879 C 54,16.243394 52.7735,15 51.25,15 l -38.5,0 C 11.2265,15 10,16.243394 10,17.787879 l 0,40.424243 C 10,59.756606 11.2265,61 12.75,61 l 38.5,0 C 52.7735,61 54,59.756606 54,58.212122 Z"/>
 <path style="fill:#4691c8" d="M 54,57.212122 54,16.787879 C 54,15.243394 52.7735,14 51.25,14 l -38.5,0 C 11.2265,14 10,15.243394 10,16.787879 l 0,40.424243 C 10,58.756606 11.2265,60 12.75,60 l 38.5,0 C 52.7735,60 54,58.756606 54,57.212122 Z"/>
 <path style="fill:#474747" d="m 54,16 0,-5.333333 C 54,9.1893334 52.7735,8 51.25,8 L 12.75,8 C 11.2265,8 10,9.1893334 10,10.666667 L 10,16 Z"/>
 <path style="opacity:0.2" d="M 14.171875,5 C 13.522904,5 13,5.5438196 13,6.21875 l 0,5.5625 C 13,12.45618 13.522904,13 14.171875,13 l 2.65625,0 C 17.477096,13 18,12.45618 18,11.78125 l 0,-5.5625 C 18,5.5438196 17.477096,5 16.828125,5 l -2.65625,0 z m 11,0 C 24.522902,5 24,5.5438196 24,6.21875 l 0,5.5625 C 24,12.45618 24.522902,13 25.171875,13 l 2.65625,0 C 28.477097,13 29,12.45618 29,11.78125 l 0,-5.5625 C 29,5.5438196 28.477097,5 27.828125,5 l -2.65625,0 z m 11,0 C 35.522902,5 35,5.5438196 35,6.21875 l 0,5.5625 C 35,12.45618 35.522902,13 36.171875,13 l 2.65625,0 C 39.477097,13 40,12.45618 40,11.78125 l 0,-5.5625 C 40,5.5438196 39.477097,5 38.828125,5 l -2.65625,0 z m 11,0 C 46.522902,5 46,5.5438196 46,6.21875 l 0,5.5625 C 46,12.45618 46.522902,13 47.171875,13 l 2.65625,0 C 50.477097,13 51,12.45618 51,11.78125 l 0,-5.5625 C 51,5.5438196 50.477097,5 49.828125,5 l -2.65625,0 z"/>
 <path style="fill:#8e8e8e" d="M 14.171875 4 C 13.522904 4 13 4.5438196 13 5.21875 L 13 10.78125 C 13 11.45618 13.522904 12 14.171875 12 L 16.828125 12 C 17.477096 12 18 11.45618 18 10.78125 L 18 5.21875 C 18 4.5438196 17.477096 4 16.828125 4 L 14.171875 4 z M 25.171875 4 C 24.522902 4 24 4.5438196 24 5.21875 L 24 10.78125 C 24 11.45618 24.522902 12 25.171875 12 L 27.828125 12 C 28.477097 12 29 11.45618 29 10.78125 L 29 5.21875 C 29 4.5438196 28.477097 4 27.828125 4 L 25.171875 4 z M 36.171875 4 C 35.522902 4 35 4.5438196 35 5.21875 L 35 10.78125 C 35 11.45618 35.522902 12 36.171875 12 L 38.828125 12 C 39.477097 12 40 11.45618 40 10.78125 L 40 5.21875 C 40 4.5438196 39.477097 4 38.828125 4 L 36.171875 4 z M 47.171875 4 C 46.522902 4 46 4.5438196 46 5.21875 L 46 10.78125 C 46 11.45618 46.522902 12 47.171875 12 L 49.828125 12 C 50.477097 12 51 11.45618 51 10.78125 L 51 5.21875 C 51 4.5438196 50.477097 4 49.828125 4 L 47.171875 4 z"/>
 <path style="opacity:0.2;fill:#ffffff" d="M 14.171875 4 C 13.522904 4 13 4.5438196 13 5.21875 L 13 6.21875 C 13 5.5438196 13.522904 5 14.171875 5 L 16.828125 5 C 17.477096 5 18 5.5438196 18 6.21875 L 18 5.21875 C 18 4.5438196 17.477096 4 16.828125 4 L 14.171875 4 z M 25.171875 4 C 24.522902 4 24 4.5438196 24 5.21875 L 24 6.21875 C 24 5.5438196 24.522902 5 25.171875 5 L 27.828125 5 C 28.477097 5 29 5.5438196 29 6.21875 L 29 5.21875 C 29 4.5438196 28.477097 4 27.828125 4 L 25.171875 4 z M 36.171875 4 C 35.522902 4 35 4.5438196 35 5.21875 L 35 6.21875 C 35 5.5438196 35.522902 5 36.171875 5 L 38.828125 5 C 39.477097 5 40 5.5438196 40 6.21875 L 40 5.21875 C 40 4.5438196 39.477097 4 38.828125 4 L 36.171875 4 z M 47.171875 4 C 46.522902 4 46 4.5438196 46 5.21875 L 46 6.21875 C 46 5.5438196 46.522902 5 47.171875 5 L 49.828125 5 C 50.477097 5 51 5.5438196 51 6.21875 L 51 5.21875 C 51 4.5438196 50.477097 4 49.828125 4 L 47.171875 4 z"/>
 <path style="opacity:0.2;fill:none;stroke:#000000;stroke-width:4;stroke-linecap:round;stroke-linejoin:bevel" d="M 15.028306,48 C 15.028306,48 24,48.648726 24,43.5 24,38.351269 15.028306,39.171922 15.028306,39.171922 m 2e-4,16.799593 0,-16.799387"/>
 <path style="fill:none;stroke:#ffffff;stroke-width:4;stroke-linecap:round;stroke-linejoin:bevel" d="M 15.028306,47 C 15.028306,47 24,47.648726 24,42.5 24,37.351269 15.028306,38.171922 15.028306,38.171922 m 2e-4,16.799593 0,-16.799387"/>
 <path style="opacity:0.2;fill:none;stroke:#000000;stroke-width:4;stroke-linecap:round;stroke-linejoin:round" d="m 30.017421,54.60009 c 0,0 1.075155,1.400919 4.199737,1.399909 3.124567,-0.001 4.782958,-1.310845 4.782958,-3.399999 0,-8.804513 -8.995211,-0.62064 -8.970181,-9.399 -0.0254,-2.108582 1.019736,-4.201 4.187223,-4.201 3.167476,0 4.782725,1.600967 4.782725,1.600967"/>
 <path style="fill:none;stroke:#ffffff;stroke-width:4;stroke-linecap:round;stroke-linejoin:round" d="m 30.017421,53.60009 c 0,0 1.075155,1.400919 4.199737,1.399909 3.124567,-0.001 4.782958,-1.310845 4.782958,-3.399999 0,-8.804513 -8.995211,-0.62064 -8.970181,-9.399 -0.0254,-2.108582 1.019736,-4.201 4.187223,-4.201 3.167476,0 4.782725,1.600967 4.782725,1.600967"/>
 <circle style="opacity:0.2" cx="21" cy="56" r="2"/>
 <circle style="fill:#ffffff" cx="21" cy="55" r="2"/>
 <circle style="opacity:0.2" cx="44" cy="56" r="2"/>
 <circle style="fill:#ffffff" cx="44" cy="55" r="2"/>
</svg>

<svg xmlns="http://www.w3.org/2000/svg" width="64" height="64" version="1"><path style="opacity:.2" d="M54 58.212V17.788C54 16.243 52.773 15 51.25 15h-38.5C11.226 15 10 16.243 10 17.788v40.424C10 59.757 11.226 61 12.75 61h38.5c1.523 0 2.75-1.243 2.75-2.788z"/><path style="fill:#4691c8" d="M54 57.212V16.788C54 15.243 52.773 14 51.25 14h-38.5C11.226 14 10 15.243 10 16.788v40.424C10 58.757 11.226 60 12.75 60h38.5c1.523 0 2.75-1.243 2.75-2.788z"/><path style="fill:#474747" d="M54 16v-5.333C54 9.189 52.773 8 51.25 8h-38.5C11.226 8 10 9.19 10 10.667V16z"/><path style="opacity:.2" d="M14.172 5C13.522 5 13 5.544 13 6.219v5.562c0 .675.523 1.219 1.172 1.219h2.656c.65 0 1.172-.544 1.172-1.219V6.22C18 5.544 17.477 5 16.828 5h-2.656zm11 0C24.522 5 24 5.544 24 6.219v5.562c0 .675.523 1.219 1.172 1.219h2.656c.65 0 1.172-.544 1.172-1.219V6.22C29 5.544 28.477 5 27.828 5h-2.656zm11 0C35.522 5 35 5.544 35 6.219v5.562c0 .675.523 1.219 1.172 1.219h2.656c.65 0 1.172-.544 1.172-1.219V6.22C40 5.544 39.477 5 38.828 5h-2.656zm11 0C46.522 5 46 5.544 46 6.219v5.562c0 .675.523 1.219 1.172 1.219h2.656c.65 0 1.172-.544 1.172-1.219V6.22C51 5.544 50.477 5 49.828 5h-2.656z"/><path style="fill:#8e8e8e" d="M14.172 4C13.522 4 13 4.544 13 5.219v5.562c0 .675.523 1.219 1.172 1.219h2.656c.65 0 1.172-.544 1.172-1.219V5.22C18 4.544 17.477 4 16.828 4h-2.656zm11 0C24.522 4 24 4.544 24 5.219v5.562c0 .675.523 1.219 1.172 1.219h2.656c.65 0 1.172-.544 1.172-1.219V5.22C29 4.544 28.477 4 27.828 4h-2.656zm11 0C35.522 4 35 4.544 35 5.219v5.562c0 .675.523 1.219 1.172 1.219h2.656c.65 0 1.172-.544 1.172-1.219V5.22C40 4.544 39.477 4 38.828 4h-2.656zm11 0C46.522 4 46 4.544 46 5.219v5.562c0 .675.523 1.219 1.172 1.219h2.656c.65 0 1.172-.544 1.172-1.219V5.22C51 4.544 50.477 4 49.828 4h-2.656z"/><path style="opacity:.2;fill:#fff" d="M14.172 4C13.522 4 13 4.544 13 5.219v1C13 5.544 13.523 5 14.172 5h2.656C17.478 5 18 5.544 18 6.219v-1C18 4.544 17.477 4 16.828 4h-2.656zm11 0C24.522 4 24 4.544 24 5.219v1C24 5.544 24.523 5 25.172 5h2.656C28.478 5 29 5.544 29 6.219v-1C29 4.544 28.477 4 27.828 4h-2.656zm11 0C35.522 4 35 4.544 35 5.219v1C35 5.544 35.523 5 36.172 5h2.656C39.478 5 40 5.544 40 6.219v-1C40 4.544 39.477 4 38.828 4h-2.656zm11 0C46.522 4 46 4.544 46 5.219v1C46 5.544 46.523 5 47.172 5h2.656C50.478 5 51 5.544 51 6.219v-1C51 4.544 50.477 4 49.828 4h-2.656z"/><path style="opacity:.2;fill:none;stroke:#000;stroke-width:4;stroke-linecap:round;stroke-linejoin:bevel" d="M15.028 48S24 48.649 24 43.5s-8.972-4.328-8.972-4.328m0 16.8v-16.8"/><path style="fill:none;stroke:#fff;stroke-width:4;stroke-linecap:round;stroke-linejoin:bevel" d="M15.028 47S24 47.649 24 42.5s-8.972-4.328-8.972-4.328m0 16.8v-16.8"/><path style="opacity:.2;fill:none;stroke:#000;stroke-width:4;stroke-linecap:round;stroke-linejoin:round" d="M30.017 54.6s1.076 1.401 4.2 1.4C37.342 55.999 39 54.69 39 52.6c0-8.805-8.995-.62-8.97-9.399C30.005 41.092 31.05 39 34.217 39 37.385 39 39 40.601 39 40.601"/><path style="fill:none;stroke:#fff;stroke-width:4;stroke-linecap:round;stroke-linejoin:round" d="M30.017 53.6s1.076 1.401 4.2 1.4C37.342 54.999 39 53.69 39 51.6c0-8.805-8.995-.62-8.97-9.399C30.005 40.092 31.05 38 34.217 38 37.385 38 39 39.601 39 39.601"/><circle style="opacity:.2" cx="21" cy="56" r="2"/><circle style="fill:#fff" cx="21" cy="55" r="2"/><circle style="opacity:.2" cx="44" cy="56" r="2"/><circle style="fill:#fff" cx="44" cy="55" r="2"/></svg>
